X: 15757
T: Good Drying
R: reel
M: 4/4
K: Dmixolydian
~f2 cd cffc|~g2 cg acgc|~f2 cd cffc|~g2 ce ~d2 dc|
~f2 cd cffc|~g2 cg acgc-|cffg ad ~d2|fggc d4:|
|:-dffg aaab|c'3a effc-|cffg ad ~d2|fggc ~d2 dc-|
-cffg aaab|c'3a effc-|cffg ad ~d2|fggc d4:|
|:~f2 cd cffc|~g2 cg cggc|~f2 cd cffc|~g2 ce ~d2 dc|
~f2 cd cffc|~g2 cg cggc-|cffg ad ~d2|fggc [ d4:|
|:-dffg ad ~d2|fggc fggc-|cffg ad ~d2|fggc ~d2 dc-|
-cffg ad ~d2|fggc fggc|ad ~d2 daad|fggc d4:|

